static/img/kroki/0a28e221d3f19b3154c776e686736905.svg

<?xml version="1.0" encoding="us-ascii" standalone="no"?><svg xmlns="http://www.w3.org/2000/svg" xmlns:xlink="http://www.w3.org/1999/xlink" contentStyleType="text/css" height="374px" preserveAspectRatio="none" style="width:336px;height:374px;" version="1.1" viewBox="0 0 336 374" width="336px" zoomAndPan="magnify"><defs/><g><!--class digitalocean_project--><g id="elem_digitalocean_project"><rect codeLine="23" fill="#3D176E" height="39.7891" id="digitalocean_project" rx="2.5" ry="2.5" style="stroke:#000D19;stroke-width:0.5;" width="209" x="7" y="328.58"/><ellipse cx="22" cy="348.4745" fill="#ADD1B2" rx="11" ry="11" style="stroke:#181818;stroke-width:1.0;"/><path d="M24.9688,354.1152 Q24.3906,354.412 23.75,354.5527 Q23.1094,354.7089 22.4063,354.7089 Q19.9063,354.7089 18.5781,353.0683 Q17.2656,351.412 17.2656,348.287 Q17.2656,345.162 18.5781,343.5058 Q19.9063,341.8495 22.4063,341.8495 Q23.1094,341.8495 23.75,342.0058 Q24.4063,342.162 24.9688,342.4589 L24.9688,345.1777 Q24.3438,344.5995 23.75,344.3339 Q23.1563,344.0527 22.5313,344.0527 Q21.1875,344.0527 20.5,345.1308 Q19.8125,346.1933 19.8125,348.287 Q19.8125,350.3808 20.5,351.4589 Q21.1875,352.5214 22.5313,352.5214 Q23.1563,352.5214 23.75,352.2558 Q24.3438,351.9745 24.9688,351.3964 L24.9688,354.1152 Z " fill="#000000"/><text fill="#D9B8FF" font-family="Helvetica" font-size="17" lengthAdjust="spacing" textLength="167" x="41" y="354.3598">digitalocean_project</text></g><!--class digitalocean_resource--><g id="elem_digitalocean_resource"><rect codeLine="26" fill="#3D176E" height="39.7891" id="digitalocean_resource" rx="2.5" ry="2.5" style="stroke:#000D19;stroke-width:0.5;" width="223" x="106" y="167.79"/><ellipse cx="121" cy="187.6845" fill="#ADD1B2" rx="11" ry="11" style="stroke:#181818;stroke-width:1.0;"/><path d="M123.9688,193.3252 Q123.3906,193.622 122.75,193.7627 Q122.1094,193.9189 121.4063,193.9189 Q118.9063,193.9189 117.5781,192.2783 Q116.2656,190.622 116.2656,187.497 Q116.2656,184.372 117.5781,182.7158 Q118.9063,181.0595 121.4063,181.0595 Q122.1094,181.0595 122.75,181.2158 Q123.4063,181.372 123.9688,181.6689 L123.9688,184.3877 Q123.3438,183.8095 122.75,183.5439 Q122.1563,183.2627 121.5313,183.2627 Q120.1875,183.2627 119.5,184.3408 Q118.8125,185.4033 118.8125,187.497 Q118.8125,189.5908 119.5,190.6689 Q120.1875,191.7314 121.5313,191.7314 Q122.1563,191.7314 122.75,191.4658 Q123.3438,191.1845 123.9688,190.6064 L123.9688,193.3252 Z " fill="#000000"/><text fill="#D9B8FF" font-family="Helvetica" font-size="17" lengthAdjust="spacing" textLength="181" x="140" y="193.5698">digitalocean_resource</text></g><!--class resource--><g id="elem_resource"><rect codeLine="29" fill="#3D176E" height="39.7891" id="resource" rx="2.5" ry="2.5" style="stroke:#000D19;stroke-width:0.5;" width="113" x="32" y="7"/><ellipse cx="47" cy="26.8945" fill="#ADD1B2" rx="11" ry="11" style="stroke:#181818;stroke-width:1.0;"/><path d="M49.9688,32.5352 Q49.3906,32.832 48.75,32.9727 Q48.1094,33.1289 47.4063,33.1289 Q44.9063,33.1289 43.5781,31.4883 Q42.2656,29.832 42.2656,26.707 Q42.2656,23.582 43.5781,21.9258 Q44.9063,20.2695 47.4063,20.2695 Q48.1094,20.2695 48.75,20.4258 Q49.4063,20.582 49.9688,20.8789 L49.9688,23.5977 Q49.3438,23.0195 48.75,22.7539 Q48.1563,22.4727 47.5313,22.4727 Q46.1875,22.4727 45.5,23.5508 Q44.8125,24.6133 44.8125,26.707 Q44.8125,28.8008 45.5,29.8789 Q46.1875,30.9414 47.5313,30.9414 Q48.1563,30.9414 48.75,30.6758 Q49.3438,30.3945 49.9688,29.8164 L49.9688,32.5352 Z " fill="#000000"/><text fill="#D9B8FF" font-family="Helvetica" font-size="17" lengthAdjust="spacing" textLength="71" x="66" y="32.7798">resource</text></g><!--reverse link digitalocean_resource to digitalocean_project--><g id="link_digitalocean_resource_digitalocean_project"><path codeLine="32" d="M194.7175,222.8116 C174.3475,253.3316 144.73,297.69 124.33,328.25 " fill="none" id="digitalocean_resource-backto-digitalocean_project" style="stroke:#FFAF37;stroke-width:2.0;"/><polygon fill="none" points="204.71,207.84,189.7269,219.4808,199.708,226.1425,204.71,207.84" style="stroke:#FFAF37;stroke-width:2.0;"/></g><!--reverse link resource to digitalocean_project--><g id="link_resource_digitalocean_project"><path codeLine="33" d="M86.6438,65.0706 C85.1138,97.9706 83.74,149.28 88.5,207.58 C92.05,251 101.68,301.26 107.29,328.14 " fill="none" id="resource-backto-digitalocean_project" style="stroke:#FFAF37;stroke-width:2.0;"/><polygon fill="none" points="87.48,47.09,80.6503,64.7918,92.6373,65.3493,87.48,47.09" style="stroke:#FFAF37;stroke-width:2.0;"/></g><!--reverse link resource to digitalocean_resource--><g id="link_resource_digitalocean_resource"><path codeLine="34" d="M115.4086,61.0217 C140.1986,91.5417 177.06,136.9 201.88,167.46 " fill="none" id="resource-backto-digitalocean_resource" style="stroke:#FFAF37;stroke-width:2.0;"/><polygon fill="none" points="104.06,47.05,110.7514,64.8046,120.0658,57.2389,104.06,47.05" style="stroke:#FFAF37;stroke-width:2.0;"/></g><!--SRC=[fT1DJy9040RWUt_59foRW4I1n0kI6BqG8zxDi3jRLjgTPdOgmO__hXKnIrlWu7NU9pllxCePL5YKibK55alaa8IryoKm56hAJ9iPvSIgPotOuQWPtfANis0E1Qexp5zHd8QcU5evlVOOWhg8eXlGwuofycRtl33uy1sXbqZDSWXXAi9kMGb6PSnaERQsAPkFzePcCBh25YCsoB-at- -RmQH9pguwUVUVMBWtL8Fuq-OasAhPMl6ZJhQiHLIoTUW-Fzhn0OnnFbENqUnnruazyi5yiG93crfRo4Ey9WWoacnBdBMkmidOs54dlZ-64rr_dJ8kSm8vQGJ_N3Aze1RrdYIVNJbZe8ernk1mrislFz8qxLoL_DVii-GB]--></g></svg>

<svg xmlns="http://www.w3.org/2000/svg" width="336" height="374" viewBox="0 0 336 374"><rect width="209" height="39.789" x="7" y="328.58" fill="#3D176E" rx="2.5" ry="2.5" style="stroke:#000d19;stroke-width:.5"/><circle cx="22" cy="348.474" r="11" fill="#ADD1B2" style="stroke:#181818;stroke-width:1"/><path d="M24.969 354.115q-.578.297-1.219.438-.64.156-1.344.156-2.5 0-3.828-1.64-1.312-1.657-1.312-4.782t1.312-4.781q1.328-1.656 3.828-1.656.703 0 1.344.156.656.156 1.219.453v2.719q-.625-.579-1.219-.844-.594-.281-1.219-.281-1.343 0-2.031 1.078-.687 1.062-.687 3.156t.687 3.172q.688 1.062 2.031 1.062.625 0 1.219-.265.594-.281 1.219-.86z"/><text x="41" y="354.36" fill="#D9B8FF" font-family="Helvetica" font-size="17" textLength="167">digitalocean_project</text><rect width="223" height="39.789" x="106" y="167.79" fill="#3D176E" rx="2.5" ry="2.5" style="stroke:#000d19;stroke-width:.5"/><circle cx="121" cy="187.685" r="11" fill="#ADD1B2" style="stroke:#181818;stroke-width:1"/><path d="M123.969 193.325q-.578.297-1.219.438-.64.156-1.344.156-2.5 0-3.828-1.64-1.312-1.657-1.312-4.782t1.312-4.781q1.328-1.656 3.828-1.656.703 0 1.344.156.656.156 1.219.453v2.719q-.625-.578-1.219-.844-.594-.281-1.219-.281-1.344 0-2.031 1.078-.687 1.062-.687 3.156t.687 3.172q.688 1.062 2.031 1.062.625 0 1.219-.265.594-.281 1.219-.86z"/><text x="140" y="193.57" fill="#D9B8FF" font-family="Helvetica" font-size="17" textLength="181">digitalocean_resource</text><rect width="113" height="39.789" x="32" y="7" fill="#3D176E" rx="2.5" ry="2.5" style="stroke:#000d19;stroke-width:.5"/><circle cx="47" cy="26.895" r="11" fill="#ADD1B2" style="stroke:#181818;stroke-width:1"/><path d="M49.969 32.535q-.578.297-1.219.438-.64.156-1.344.156-2.5 0-3.828-1.64-1.312-1.657-1.312-4.782t1.312-4.781q1.328-1.656 3.828-1.656.703 0 1.344.156.656.156 1.219.453v2.719q-.625-.578-1.219-.844-.594-.281-1.219-.281-1.343 0-2.031 1.078-.687 1.062-.687 3.156t.687 3.172q.688 1.062 2.031 1.062.625 0 1.219-.265.594-.281 1.219-.86z"/><text x="66" y="32.78" fill="#D9B8FF" font-family="Helvetica" font-size="17" textLength="71">resource</text><path fill="none" d="M194.718 222.812c-20.37 30.52-49.988 74.878-70.388 105.438m80.38-120.41-14.983 11.64 9.981 6.663z" style="stroke:#ffaf37;stroke-width:2"/><g fill="none"><path d="M86.644 65.07c-1.53 32.9-2.904 84.21 1.856 142.51 3.55 43.42 13.18 93.68 18.79 120.56" style="stroke:#ffaf37;stroke-width:2"/><path d="m87.48 47.09-6.83 17.702 11.987.557z" style="stroke:#ffaf37;stroke-width:2"/></g><path fill="none" d="M115.409 61.022c24.79 30.52 61.651 75.878 86.471 106.438M104.06 47.05l6.691 17.755 9.315-7.566z" style="stroke:#ffaf37;stroke-width:2"/></svg>
